src/svg/icons/crop.svg

<svg height="1000" width="928.571" xmlns="http://www.w3.org/2000/svg"><path d="M310.806 714.304h332.01v-332.01zm-25.11 -25.11l332.01 -332.01h-332.01v332.01zm642.816 42.966v107.136q0 7.812 -5.022 12.834t-12.834 5.022h-124.992v124.992q0 7.812 -5.022 12.834t-12.834 5.022h-107.136q-7.812 0 -12.834 -5.022t-5.022 -12.834v-124.992h-482.112q-7.812 0 -12.834 -5.022t-5.022 -12.834v-482.112h-124.992q-7.812 0 -12.834 -5.022t-5.022 -12.834v-107.136q0 -7.812 5.022 -12.834t12.834 -5.022h124.992v-124.992q0 -7.812 5.022 -12.834t12.834 -5.022h107.136q7.812 0 12.834 5.022t5.022 12.834v124.992h474.858l137.268 -137.826q5.58 -5.022 12.834 -5.022t12.834 5.022q5.022 5.58 5.022 12.834t-5.022 12.834l-137.826 137.268v474.858h124.992q7.812 0 12.834 5.022t5.022 12.834z"/></svg>

<svg height="1000" width="928.571" xmlns="http://www.w3.org/2000/svg"><path d="M310.806 714.304h332.01v-332.01zm-25.11-25.11l332.01-332.01h-332.01v332.01zm642.816 42.966v107.136q0 7.812-5.022 12.834t-12.834 5.022H785.664v124.992q0 7.812-5.022 12.834T767.808 1000H660.672q-7.812 0-12.834-5.022t-5.022-12.834V857.152H160.704q-7.812 0-12.834-5.022t-5.022-12.834V357.184H17.856q-7.812 0-12.834-5.022T0 339.328V232.192q0-7.812 5.022-12.834t12.834-5.022h124.992V89.344q0-7.812 5.022-12.834t12.834-5.022H267.84q7.812 0 12.834 5.022t5.022 12.834v124.992h474.858L897.822 76.51q5.58-5.022 12.834-5.022t12.834 5.022q5.022 5.58 5.022 12.834t-5.022 12.834L785.664 239.446v474.858h124.992q7.812 0 12.834 5.022t5.022 12.834z"/></svg>
